!!!OTL: Des Soldaten Heimkehr (52), S.166
!!!id: T0190
**kern
*clefG2
*k[]
*G:
{16d
16d
=1
4g
8g
8b
8a
8g
=2
4a
8dd
4dd
8cc
=3
4.b}
4r
=4
{16d
16d
=5
4g
8g
8b
8a
8g
=6
4a
8dd
4dd
8cc
=7
4.b}
4r
=8
{8dd
=9
4ee
8cc
8cc
8cc
8ee
=10
8dd
8cc
8cc
4b}
=11
{16b
16b
=12
8a
8a
8a
8a
8b
8cc
=13
8ee
8dd
8dd
4ee
16dd
16cc
=14
4.b}
4r
==
*-
!!!minrhy: 16
!!!meters: 6/8 ]  ZZ[4
!!!cut: Des Soldaten Heimkehr (52), S.166
!!!reg: Luxemburg
!!!trd: Singendes Volk, Esch-Alzette 1937 posth.
!!!rhy1: XX  X__X_X_X_X_  X__X_X__X_  X__.0__
!!!rhy2: XX  X__X_X_X_X_  X__X_X__X_  X__.0__
!!!key: T0190  16  G 6/8 ]  ZZ[4
!!!mod: SECHSTONSKALA DUR ?]  AMBITUS[9
!!!kad: 3333
!!!akz: 13253_13253_6453_22663_
!!!fot: 'a__a__b__c__
!!!for: 'a__a__b__c__
!!!fok: 'Ma_Ma_\__^__
!! PHRAS[AUFTAKTIG]
!!!fkt: Liebeslieder
!!!bem: Rammeldingen, ? N. Birnbaum, 25.2.1934
!! THILL, Mathias:
!! PR[14] 2K[8] 2G[12] 3K[4] 3G[2] 4A[10] 4Ü[0] 5A[0] 6K[0] 6G[0]
!! 7K[0] 7G[0] 8A[0] MEHR[0] SI[37] ABS[49] SR[20] SP[16]
!! ST[16] 2k[16] 2g[29] 3k[2] 3g[0] 4d[0] 4ü[0] 5d[2] 6k[0] 6g[0]
!! 7k[0] 7g[0] 8d[0] mehr[0] si[49] dm[-12] sr[45] sp[4]
!! 1F[8] 2F[30] 3F[40] 4F[0] LF[0] 2P[0] 3P[23] 4P[0] TRI[0] DF[4] AB[53]
!! TF[0] U3K[0] U3[0] U4[0] U4Ü[0] U5[4] U6K[0] U6[0] U7K[0] U7[6]
!! N1[16] N2K[0] N2[22] N3K[0] N3[24] N4[10] N4Ü[0] N5[6] N6K[0] N6[12]
!!!n7k: 0] N7[0] O1[0] O2K[0] O2[0] O3K[0] O3[0] HÖ[0
